X: 24958
T: Maid In The Meadow, The
R: jig
M: 6/8
K: Amajor
B|:c2A B2c|BAF EFA|BAB c2B|BAF d3|c3 B3|
BAF EFA|1 ~B3 cAG|ABc d2B:|2 BAB cec|BeB A2(3e/f/g/||
|:aee ~f3|aec Ace|aee fec|~B3 Ace|aee ~f3|
aec ABc|1 BAB cec|~B3 A2(3e/f/g/:|2 ~B3 cAG|ABc d2B||

